assets/components_previews/overlay/dark/hover_card.svg

<svg xmlns="http://www.w3.org/2000/svg" width="320" height="232" fill="none" viewBox="0 0 320 232"><g filter="url(#a)"><rect width="160" height="62" x="80" y="85" fill="#0E0F10" rx="12"/><rect width="72" height="10" x="104" y="101" fill="#2F1C78" rx="5"/><rect width="112" height="10" x="104" y="121" fill="#2F1C78" rx="5"/></g><g filter="url(#b)"><path fill="#5F43D0" d="M165.017 151.841c0-.527 0-.791.143-.875a.3.3 0 0 1 .058-.026c.158-.049.341.134.708.498.549.628.995 1.139 1.319 1.59.336.469.58.926.685 1.461q.09.462.064.932c-.031.545-.211 1.033-.481 1.545-.26.493-.632 1.061-1.09 1.76l-.599.915c-.554.845-.893 1.364-1.316 1.781a5.46 5.46 0 0 1-2.665 1.452c-.573.126-1.434.126-2.433.126-1.775 0-2.852 0-3.742-.32a5.55 5.55 0 0 1-3.352-3.414c-.316-.912-.316-2.014-.316-3.815v-1.963c0-.259.019-.894.028-1.18 0-.978.785-1.932 1.852-2.187.232-.055.348-.083.454.005s.107.23.107.515v1.811c0 .227.182.411.406.411a.41.41 0 0 0 .407-.411v-2.377c0-.106 0-.159.021-.212a.5.5 0 0 1 .113-.152c.393-.421.96-.726 1.743-.824.249-.031.374-.046.469.041s.095.229.095.511v1.917c0 .227.182.411.407.411a.41.41 0 0 0 .406-.411v-2.532c0-.133 0-.199.031-.261.03-.062.075-.097.165-.165.429-.327.958-.52 1.531-.52.078.001.218.01.368.039.143.027.215.04.281.122.065.081.065.174.065.359v2.958c0 .227.182.411.407.411a.41.41 0 0 0 .407-.411v-7.091c0-.699.546-1.265 1.22-1.265s1.22.566 1.22 1.265v10.927c0 .227.182.411.407.411a.41.41 0 0 0 .407-.411z"/></g><defs><filter id="a" width="200" height="102" x="60" y="77" color-interpolation-filters="sRGB" filterUnits="userSpaceOnUse"><feFlood flood-opacity="0" result="BackgroundImageFix"/><feColorMatrix in="SourceAlpha" result="hardAlpha" values="0 0 0 0 0 0 0 0 0 0 0 0 0 0 0 0 0 0 127 0"/><feOffset dy="12"/><feGaussianBlur stdDeviation="10"/><feComposite in2="hardAlpha" operator="out"/><feColorMatrix values="0 0 0 0 0 0 0 0 0 0 0 0 0 0 0 0 0 0 0.03 0"/><feBlend in2="BackgroundImageFix" result="effect1_dropShadow_10186_24951"/><feColorMatrix in="SourceAlpha" result="hardAlpha" values="0 0 0 0 0 0 0 0 0 0 0 0 0 0 0 0 0 0 127 0"/><feOffset dy="2"/><feGaussianBlur stdDeviation="3"/><feComposite in2="hardAlpha" operator="out"/><feColorMatrix values="0 0 0 0 0 0 0 0 0 0 0 0 0 0 0 0 0 0 0.05 0"/><feBlend in2="effect1_dropShadow_10186_24951" result="effect2_dropShadow_10186_24951"/><feBlend in="SourceGraphic" in2="effect2_dropShadow_10186_24951" result="shape"/></filter><filter id="b" width="64" height="64" x="128" y="133" color-interpolation-filters="sRGB" filterUnits="userSpaceOnUse"><feFlood flood-opacity="0" result="BackgroundImageFix"/><feColorMatrix in="SourceAlpha" result="hardAlpha" values="0 0 0 0 0 0 0 0 0 0 0 0 0 0 0 0 0 0 127 0"/><feOffset dy="12"/><feGaussianBlur stdDeviation="10"/><feComposite in2="hardAlpha" operator="out"/><feColorMatrix values="0 0 0 0 0 0 0 0 0 0 0 0 0 0 0 0 0 0 0.03 0"/><feBlend in2="BackgroundImageFix" result="effect1_dropShadow_10186_24951"/><feColorMatrix in="SourceAlpha" result="hardAlpha" values="0 0 0 0 0 0 0 0 0 0 0 0 0 0 0 0 0 0 127 0"/><feOffset dy="2"/><feGaussianBlur stdDeviation="3"/><feComposite in2="hardAlpha" operator="out"/><feColorMatrix values="0 0 0 0 0 0 0 0 0 0 0 0 0 0 0 0 0 0 0.05 0"/><feBlend in2="effect1_dropShadow_10186_24951" result="effect2_dropShadow_10186_24951"/><feBlend in="SourceGraphic" in2="effect2_dropShadow_10186_24951" result="shape"/></filter></defs></svg>

<svg width="320" height="232" viewBox="0 0 320 232" fill="none" xmlns="http://www.w3.org/2000/svg">
<g filter="url(#filter0_dd_10186_24951)">
<rect x="80" y="85" width="160" height="62" rx="12" fill="#0E0F10"/>
<rect x="104" y="101" width="72" height="10" rx="5" fill="#2F1C78"/>
<rect x="104" y="121" width="112" height="10" rx="5" fill="#2F1C78"/>
</g>
<g filter="url(#filter1_dd_10186_24951)">
<path d="M165.017 151.841C165.017 151.314 165.017 151.05 165.16 150.966C165.178 150.955 165.198 150.947 165.218 150.94C165.376 150.891 165.559 151.074 165.926 151.438C166.475 152.066 166.921 152.577 167.245 153.028C167.581 153.497 167.825 153.954 167.93 154.489C167.99 154.796 168.012 155.109 167.994 155.421C167.963 155.966 167.783 156.454 167.513 156.966C167.253 157.459 166.881 158.027 166.423 158.726L165.824 159.641C165.27 160.486 164.931 161.005 164.508 161.422C163.769 162.151 162.846 162.654 161.843 162.874C161.27 163 160.409 163 159.41 163C157.635 163 156.558 163 155.668 162.68C154.106 162.118 152.872 160.865 152.316 159.266C152 158.354 152 157.252 152 155.451L152 153.488C152 153.229 152.019 152.594 152.028 152.308C152.028 151.33 152.813 150.376 153.88 150.121C154.112 150.066 154.228 150.038 154.334 150.126C154.441 150.214 154.441 150.356 154.441 150.641V152.452C154.441 152.679 154.623 152.863 154.847 152.863C155.072 152.863 155.254 152.679 155.254 152.452V150.075C155.254 149.969 155.254 149.916 155.275 149.863C155.295 149.81 155.326 149.777 155.388 149.711C155.781 149.29 156.348 148.985 157.131 148.887C157.38 148.856 157.505 148.841 157.6 148.928C157.695 149.015 157.695 149.157 157.695 149.439V151.356C157.695 151.583 157.877 151.767 158.102 151.767C158.326 151.767 158.508 151.583 158.508 151.356V148.824C158.508 148.691 158.508 148.625 158.539 148.563C158.569 148.501 158.614 148.466 158.704 148.398C159.133 148.071 159.662 147.878 160.235 147.878C160.313 147.879 160.453 147.888 160.603 147.917C160.746 147.944 160.818 147.957 160.884 148.039C160.949 148.12 160.949 148.213 160.949 148.398V151.356C160.949 151.583 161.131 151.767 161.356 151.767C161.58 151.767 161.763 151.583 161.763 151.356V144.265C161.763 143.566 162.309 143 162.983 143C163.657 143 164.203 143.566 164.203 144.265V155.192C164.203 155.419 164.385 155.603 164.61 155.603C164.835 155.603 165.017 155.419 165.017 155.192V151.841Z" fill="#5F43D0"/>
</g>
<defs>
<filter id="filter0_dd_10186_24951" x="60" y="77" width="200" height="102" filterUnits="userSpaceOnUse" color-interpolation-filters="sRGB">
<feFlood flood-opacity="0" result="BackgroundImageFix"/>
<feColorMatrix in="SourceAlpha" type="matrix" values="0 0 0 0 0 0 0 0 0 0 0 0 0 0 0 0 0 0 127 0" result="hardAlpha"/>
<feOffset dy="12"/>
<feGaussianBlur stdDeviation="10"/>
<feComposite in2="hardAlpha" operator="out"/>
<feColorMatrix type="matrix" values="0 0 0 0 0 0 0 0 0 0 0 0 0 0 0 0 0 0 0.03 0"/>
<feBlend mode="normal" in2="BackgroundImageFix" result="effect1_dropShadow_10186_24951"/>
<feColorMatrix in="SourceAlpha" type="matrix" values="0 0 0 0 0 0 0 0 0 0 0 0 0 0 0 0 0 0 127 0" result="hardAlpha"/>
<feOffset dy="2"/>
<feGaussianBlur stdDeviation="3"/>
<feComposite in2="hardAlpha" operator="out"/>
<feColorMatrix type="matrix" values="0 0 0 0 0 0 0 0 0 0 0 0 0 0 0 0 0 0 0.05 0"/>
<feBlend mode="normal" in2="effect1_dropShadow_10186_24951" result="effect2_dropShadow_10186_24951"/>
<feBlend mode="normal" in="SourceGraphic" in2="effect2_dropShadow_10186_24951" result="shape"/>
</filter>
<filter id="filter1_dd_10186_24951" x="128" y="133" width="64" height="64" filterUnits="userSpaceOnUse" color-interpolation-filters="sRGB">
<feFlood flood-opacity="0" result="BackgroundImageFix"/>
<feColorMatrix in="SourceAlpha" type="matrix" values="0 0 0 0 0 0 0 0 0 0 0 0 0 0 0 0 0 0 127 0" result="hardAlpha"/>
<feOffset dy="12"/>
<feGaussianBlur stdDeviation="10"/>
<feComposite in2="hardAlpha" operator="out"/>
<feColorMatrix type="matrix" values="0 0 0 0 0 0 0 0 0 0 0 0 0 0 0 0 0 0 0.03 0"/>
<feBlend mode="normal" in2="BackgroundImageFix" result="effect1_dropShadow_10186_24951"/>
<feColorMatrix in="SourceAlpha" type="matrix" values="0 0 0 0 0 0 0 0 0 0 0 0 0 0 0 0 0 0 127 0" result="hardAlpha"/>
<feOffset dy="2"/>
<feGaussianBlur stdDeviation="3"/>
<feComposite in2="hardAlpha" operator="out"/>
<feColorMatrix type="matrix" values="0 0 0 0 0 0 0 0 0 0 0 0 0 0 0 0 0 0 0.05 0"/>
<feBlend mode="normal" in2="effect1_dropShadow_10186_24951" result="effect2_dropShadow_10186_24951"/>
<feBlend mode="normal" in="SourceGraphic" in2="effect2_dropShadow_10186_24951" result="shape"/>
</filter>
</defs>
</svg>
